X: 68
T:Petronella
M:4/4
L:1/8
Q:120
C:Traditional
R:Reel
K:D
AG|:"D"F2AFE"A"E2AF|"D"D2D2D2((3ABc|d2)cde2d2|"A"c-decA2AG|"D"F2AF"A"E2A
F|!
"D"D2D2D2((3ABc|d2)cd"A"e2c2|[1"D"d6A-G:|[2"D"d6d-A|||:"D"F2fdA2af|"G"g2
g-f"(Em)" edcB|!
"A"A2ecA2ge|"D"f2f-g fdAF|D2fdA2af|"G"g2g-f"(Em)" edcB|"A"A2e-c Agec|[1"
D
"d6d-A:|[2"D"d6|]
